X: 2600
T: Balmoral Schottische, The
R: barndance
M: 4/4
K: Dmajor
|:F>G|A>FD>F A2 (3gfe|d>cB>A G2 G>A|B>GE>G B2 e<d|c>AB>^G A2 (3EF=G|
A2 (3DEF A2 f>e|d2 (3cBA g2 e>d|c>BA>^G A2 (3ba=g|(3fgf d>c d2:|
|:d>c|B>FD>F B2 (3cde|f>ed>c B2 c>B|A>EC>E A2 (3Bcd|e>d (3cdB A2 (3edc|
B2 (3DEF B>cd>e|f2 (3edc d>cB>A|c2 (3A^GA A>=GF<E|(3DDD d2 [D2d2]:|

